X:1
T:G Major            Jeremiah Ingalls, 1805
T:Charles Wesley, 1763 A Thought on Judgment    86. 86. (C. M.)
T:The Tribunal
T:Transcribed from Ingalls' Christian Harmony, 1805.
%%score [ 1 2 3 ]
L:1/8
Q:1/4=150
M:6/4
K:G
V:1 treble nm="Tr." snm="Tr."
V:2 treble-8 nm="T." snm="T."
V:3 bass nm="B." snm="B."
V:1
"^1. And  must  I be to  judgment  brought,  And  answer  in      that   day __ For  every  vain,  or  idle  thought,  And   eve – ry  word  I  say?\n2. Yes,  eve–ry  se–cret   of  my  heart       Shall  shortly be made known,__  And  I  re–ceive  my  just  de –sert   For  all  that  I  have  done.\n3. How care–ful  then  ought  I  to  live,    With  what  re –li –gious  fear,   Who such a strict account must give  Of   my  be –ha–vior  here!" A2 | %1
 B4 d2 B4 e2 | (d2 B2) G2 d6- | d4 d2 B4 d2 | (B3 A) G2 A6- | A4 A2 B4 d2 | B4 e2 (d2 B2) G2 | %7
 d6 B6 | (B2 d2) B2 G4 A2 | B12 |] %10
V:2
"^4. Thou awful judge of quick and dead,    The  watchful  power  be–stow,    So  shall  I  to  my  ways  take  heed,  To  all   I  speak  and  do.\n5.   If  now  thou  standest  at  the door,      O   let   me  feel   thee   near,     And make my peace with God, before   I   at   thy   bar  ap–pear.\n6. My  peace  thou  hast  already  made,     While  hanging  on  the   tree,    My  sins  he  on  thy bo – dy  laid,  And punish’d  them in thee." D2 | %1
 G4 A2 (G2 A2) B2 | (A2 G2) E2 D6- | D4 D2 G4 A2 | (G3 A) Bc d6- | d4 D2 G4 A2 | %6
 (G2 A2) B2 (A2 G2) E2 | D6 d6 | (d2 B2) G2 B4 A2 | G12 |] %10
V:3
"^7. Ah, might I, Lord,  the  virtue prove    Of  thine  a – to – ning   blood,  And  know,  thou  ever  livest above  My  advocate  with God;\n8. Re–ceive  the  answer  of  thy prayer,     The sense of  sin  for  – given,    And  follow thee with loving care,  And  go in  peace to heaven." D,2 | %1
 G,4 D,2 E,4 E,2 | (D,2 E,2) G,2 A,6- | A,4 D,2 G,4 D,2 | E,4 E,2 D,6- | D,4 D,2 G,4 D,2 | %6
 E,4 E,2 (D,2 E,2) G,2 | A,6 G,6 | (B,2 G,2) [B,,B,]2 [D,D]4 D,2 | [G,,G,]12 |] %10

